assets/icons/Outline/Home.svg

<svg width="24" height="24" viewBox="0 0 24 24" fill="none" xmlns="http://www.w3.org/2000/svg">
<mask id="mask0_10_1630" style="mask-type:alpha" maskUnits="userSpaceOnUse" x="2" y="1" width="21" height="22">
<path fill-rule="evenodd" clip-rule="evenodd" d="M2 1.00018H22.4998V22.5052H2V1.00018Z" fill="white"/>
</mask>
<g mask="url(#mask0_10_1630)">
<path fill-rule="evenodd" clip-rule="evenodd" d="M13.7168 15.2913C14.9208 15.2913 15.9008 16.2643 15.9008 17.4603V20.5363C15.9008 20.7933 16.1068 20.9993 16.3708 21.0053H18.2768C19.7788 21.0053 20.9998 19.7993 20.9998 18.3173V9.59331C20.9928 9.08331 20.7498 8.60331 20.3328 8.28431L13.7398 3.02631C12.8548 2.32531 11.6168 2.32531 10.7288 3.02831L4.1808 8.28231C3.7478 8.61131 3.5048 9.09131 3.4998 9.61031V18.3173C3.4998 19.7993 4.7208 21.0053 6.2228 21.0053H8.1468C8.4178 21.0053 8.6378 20.7903 8.6378 20.5263C8.6378 20.4683 8.6448 20.4103 8.6568 20.3553V17.4603C8.6568 16.2713 9.6308 15.2993 10.8258 15.2913H13.7168ZM18.2768 22.5053H16.3528C15.2508 22.4793 14.4008 21.6143 14.4008 20.5363V17.4603C14.4008 17.0913 14.0938 16.7913 13.7168 16.7913H10.8308C10.4618 16.7933 10.1568 17.0943 10.1568 17.4603V20.5263C10.1568 20.6013 10.1468 20.6733 10.1258 20.7413C10.0178 21.7313 9.1718 22.5053 8.1468 22.5053H6.2228C3.8938 22.5053 1.9998 20.6263 1.9998 18.3173V9.60331C2.0098 8.60931 2.4678 7.69931 3.2588 7.10031L9.7938 1.85531C11.2328 0.715311 13.2378 0.715311 14.6738 1.85331L21.2558 7.10331C22.0288 7.69231 22.4868 8.60031 22.4998 9.58231V18.3173C22.4998 20.6263 20.6058 22.5053 18.2768 22.5053V22.5053Z" fill="#AFB7C4"/>
</g>
</svg>

<?xml version="1.0" encoding="utf-8"?>
<!-- Generator: Adobe Illustrator 25.0.0, SVG Export Plug-In . SVG Version: 6.00 Build 0)  -->
<svg version="1.1" id="Layer_1" xmlns="http://www.w3.org/2000/svg" xmlns:xlink="http://www.w3.org/1999/xlink" x="0px" y="0px"
	 viewBox="0 0 24 24" style="enable-background:new 0 0 24 24;" xml:space="preserve">
<style type="text/css">
	.st0{fill-rule:evenodd;clip-rule:evenodd;fill:#FFFFFF;filter:url(#Adobe_OpacityMaskFilter);}
	.st1{mask:url(#mask0_344_8149_1_);}
	.st2{fill-rule:evenodd;clip-rule:evenodd;fill:#AFB7C4;}
</style>
<defs>
	<filter id="Adobe_OpacityMaskFilter" filterUnits="userSpaceOnUse" x="2" y="1" width="20.5" height="21.5">
		<feColorMatrix  type="matrix" values="1 0 0 0 0  0 1 0 0 0  0 0 1 0 0  0 0 0 1 0"/>
	</filter>
</defs>
<mask maskUnits="userSpaceOnUse" x="2" y="1" width="20.5" height="21.5" id="mask0_344_8149_1_">
	<path class="st0" d="M2,1h20.5v21.5H2V1z"/>
</mask>
<g class="st1">
	<path class="st2" d="M13.7,15.3c1.2,0,2.2,1,2.2,2.2v3.1c0,0.3,0.2,0.5,0.5,0.5h1.9c1.5,0,2.7-1.2,2.7-2.7V9.6c0-0.5-0.2-1-0.7-1.3
		L13.7,3c-0.9-0.7-2.1-0.7-3,0L4.2,8.3C3.7,8.6,3.5,9.1,3.5,9.6v8.7c0,1.5,1.2,2.7,2.7,2.7h1.9c0.3,0,0.5-0.2,0.5-0.5
		c0-0.1,0-0.1,0-0.2v-2.9c0-1.2,1-2.2,2.2-2.2H13.7z M18.3,22.5h-1.9c-1.1,0-2-0.9-2-2v-3.1c0-0.4-0.3-0.7-0.7-0.7h-2.9
		c-0.4,0-0.7,0.3-0.7,0.7v3.1c0,0.1,0,0.1,0,0.2c-0.1,1-1,1.8-2,1.8H6.2c-2.3,0-4.2-1.9-4.2-4.2V9.6c0-1,0.5-1.9,1.3-2.5l6.5-5.2
		c1.4-1.1,3.4-1.1,4.9,0l6.6,5.2c0.8,0.6,1.2,1.5,1.2,2.5v8.7C22.5,20.6,20.6,22.5,18.3,22.5z"/>
</g>
</svg>
